X:5593
T:Robin Adair. HSJJ.190
O:england
M:3/4
L:1/8
S:HSJ Jackson,Wyresdale,Lancs.1823
R:Air
A:Lancashire
H:1823
K:C
G2A2B2|c3de2|G>c A>c B>d|c4z2|G2A2B2|c3de2|G<c A<c B<d|c4z2|
e2e2e2|g3GG2|e2e-g (3fdB|c3AG2|g2(gf ed)|c3d"hold"e2|G>c"Finis Hujus" A>
c B>d|c4|]


